coreui/free/cil-bluetooth.svg

<svg xmlns="http://www.w3.org/2000/svg" viewBox="0 0 512 512">
  <path fill="var(--ci-primary-color, currentColor)" d="M150.627,376,232,294.627V496h38.627l120-120-120-120,120-120-120-120H232V217.373L150.627,136H105.373l120,120-120,120ZM264,54.627,345.373,136,264,217.373Zm0,240L345.373,376,264,457.373Z" class="ci-primary"/>
</svg>

<svg viewBox="0 0 512 512" xmlns="http://www.w3.org/2000/svg"><path d="M150.627 376l81.37-81.38v201.373h38.62l120-120 -120-120 120-120 -120-120h-38.63V217.36l-81.38-81.38h-45.26l120 120 -120 120ZM263.997 54.62l81.37 81.37 -81.38 81.37Zm0 240l81.37 81.37 -81.38 81.37Z"/></svg>
